gama.ui.shared/icons_svg/light/editor/content.assist.svg

<svg height="25" viewBox="-79.383 -3675.743 25 25" width="25" xmlns="http://www.w3.org/2000/svg"><g fill="none"><path d="m-75.04302-3675.243h16.32c2.120776 0 3.84 1.7194 3.84 3.84v16.32c0 2.121-1.719224 3.84-3.84 3.84h-16.32c-2.12077 0-3.84-1.719-3.84-3.84v-16.32c0-2.1206 1.71923-3.84 3.84-3.84z" fill="#fff"/><path d="m-75.04302-3675.243h16.32c2.120776 0 3.84 1.7194 3.84 3.84v16.32c0 2.121-1.719224 3.84-3.84 3.84h-16.32c-2.12077 0-3.84-1.719-3.84-3.84v-16.32c0-2.1206 1.71923-3.84 3.84-3.84z" stroke="#000" stroke-linecap="round" stroke-linejoin="round" stroke-width=".25"/><path d="m-65.12557-3667.1975s-.028036.0351-.04205.0491c-.41352.4134-.41352 1.0864 0 1.4998.37847.3786.974214.4066 1.38773.0842l.49762-.4976c-.77096-.105-1.38773-.722-1.49286-1.493l-.35745.3575zm-1.0373 1.0375-6.71439 6.721c-.41352.4137-.41352 1.0866 0 1.5.41352.4136 1.07935.4136 1.492866 0l6.707384-6.7213c-.35745-.0561-.707885-.2173-.98123-.4977-.28035-.2803-.44856-.6377-.49762-1.009zm3.034796.939s-.028036.042-.049061.063c-.042055.042-.084105.084-.126155.119l-7.58348 7.5907c-.68686.6869-1.794245.6869-2.4811 0-.68686-.6867-.68686-1.8013 0-2.4881l9.08335-9.0976s.028035-.028.04205-.035c.3154-.294.73592-.4834 1.20551-.4834.96721 0 1.75219.7849 1.75219 1.7522 0 .4625-.18223.8832-.476596 1.1985-.014014.014-.021024.028-.035044.049l-1.33867 1.3387zm-.9602 4.78h.350438c.196246 0 .350436.154.350436.3504 0 .1962-.15419.3506-.350436.3506h-.350438v.3923c0 .1963-.154196.3505-.350436.3505-.19625 0-.35044-.1542-.35044-.3505v-.3923h-.35044c-.19624 0-.35044-.1544-.35044-.3506 0-.1964.1542-.3504.35044-.3504h.35044v-.3505c0-.1962.15419-.3505.35044-.3505.19624 0 .350436.1543.350436.3505zm-4.906136-8.4106v-.3504c0-.1962.154196-.3504.35044-.3504.19625 0 .35044.1542.35044.3504v.3504h.35044c.19624 0 .350435.1542.350435.3506 0 .196-.154195.3503-.350435.3503h-.35044v.3505c0 .1962-.15419.3502-.35044.3502-.196244 0-.35044-.154-.35044-.3502v-.3505h-.350435c-.196245 0-.350435-.1543-.350435-.3503 0-.1964.15419-.3506.350435-.3506zm8.410516 5.6071h.350438c.196246 0 .350436.1541.350436.3505 0 .196-.15419.3503-.350436.3503h-.350438v.3505c0 .1962-.154196.3502-.350436.3502-.19625 0-.35044-.154-.35044-.3502v-.3505h-.35044c-.19624 0-.350436-.1543-.350436-.3503 0-.1964.154196-.3505.350436-.3505h.35044v-.3505c0-.1962.15419-.3504.35044-.3504.19624 0 .350436.1542.350436.3504zm-2.453066-3.5045c.58173 0 1.051314-.4695 1.051314-1.0512 0-.5818-.469584-1.0514-1.051314-1.0514s-1.051314.4696-1.051314 1.0514c0 .5817.469584 1.0512 1.051314 1.0512z" fill="#5c75a0"/></g></svg>

<?xml version="1.0" encoding="UTF-8" standalone="no"?>
<!DOCTYPE svg PUBLIC "-//W3C//DTD SVG 1.1//EN" "http://www.w3.org/Graphics/SVG/1.1/DTD/svg11.dtd">
<svg xmlns:dc="http://purl.org/dc/elements/1.1/" xmlns:xl="http://www.w3.org/1999/xlink" version="1.1" xmlns="http://www.w3.org/2000/svg" viewBox="-79.38302 -3675.743 25 25" width="25" height="25">
  <defs/>
  <g id="SOURCES" stroke-dasharray="none" stroke="none" stroke-opacity="1" fill="none" fill-opacity="1">
    <title>SOURCES</title>
    <g id="SOURCES_Calque_2">
      <title>Calque 2</title>
      <g id="Graphic_9959">
        <path d="M -75.04302 -3675.243 L -58.72302 -3675.243 C -56.602244 -3675.243 -54.88302 -3673.5236 -54.88302 -3671.403 L -54.88302 -3655.083 C -54.88302 -3652.962 -56.602244 -3651.243 -58.72302 -3651.243 L -75.04302 -3651.243 C -77.16379 -3651.243 -78.88302 -3652.962 -78.88302 -3655.083 L -78.88302 -3671.403 C -78.88302 -3673.5236 -77.16379 -3675.243 -75.04302 -3675.243 Z" fill="white"/>
        <path d="M -75.04302 -3675.243 L -58.72302 -3675.243 C -56.602244 -3675.243 -54.88302 -3673.5236 -54.88302 -3671.403 L -54.88302 -3655.083 C -54.88302 -3652.962 -56.602244 -3651.243 -58.72302 -3651.243 L -75.04302 -3651.243 C -77.16379 -3651.243 -78.88302 -3652.962 -78.88302 -3655.083 L -78.88302 -3671.403 C -78.88302 -3673.5236 -77.16379 -3675.243 -75.04302 -3675.243 Z" stroke="black" stroke-linecap="round" stroke-linejoin="round" stroke-width=".25"/>
      </g>
      <g id="Group_9957">
        <title>magic-wand</title>
        <g id="Graphic_9958">
          <path d="M -65.12557 -3667.1975 C -65.12557 -3667.1975 -65.153606 -3667.1624 -65.16762 -3667.1484 C -65.58114 -3666.735 -65.58114 -3666.062 -65.16762 -3665.6486 C -64.78915 -3665.27 -64.193406 -3665.242 -63.77989 -3665.5644 L -63.28227 -3666.062 C -64.05323 -3666.167 -64.67 -3666.784 -64.77513 -3667.555 L -65.13258 -3667.1975 Z M -66.16287 -3666.16 L -72.87726 -3659.439 C -73.29078 -3659.0253 -73.29078 -3658.3524 -72.87726 -3657.939 C -72.46374 -3657.5254 -71.79791 -3657.5254 -71.384394 -3657.939 L -64.67701 -3664.6603 C -65.03446 -3664.7164 -65.384895 -3664.8776 -65.65824 -3665.158 C -65.93859 -3665.4383 -66.1068 -3665.7957 -66.15586 -3666.167 Z M -63.128074 -3665.221 C -63.128074 -3665.221 -63.15611 -3665.179 -63.177135 -3665.158 C -63.21919 -3665.116 -63.26124 -3665.074 -63.30329 -3665.039 L -70.88677 -3657.4483 C -71.57363 -3656.7614 -72.681015 -3656.7614 -73.36787 -3657.4483 C -74.05473 -3658.135 -74.05473 -3659.2496 -73.36787 -3659.9364 L -64.28452 -3669.034 C -64.28452 -3669.034 -64.256485 -3669.062 -64.24247 -3669.069 C -63.92707 -3669.363 -63.50655 -3669.5524 -63.03696 -3669.5524 C -62.06975 -3669.5524 -61.28477 -3668.7675 -61.28477 -3667.8002 C -61.28477 -3667.3377 -61.467 -3666.917 -61.761366 -3666.6017 C -61.77538 -3666.5877 -61.78239 -3666.5737 -61.79641 -3666.5527 L -63.13508 -3665.214 Z M -64.088274 -3660.441 L -63.737836 -3660.441 C -63.54159 -3660.441 -63.3874 -3660.287 -63.3874 -3660.0906 C -63.3874 -3659.8944 -63.54159 -3659.74 -63.737836 -3659.74 L -64.088274 -3659.74 L -64.088274 -3659.3477 C -64.088274 -3659.1514 -64.24247 -3658.9972 -64.43871 -3658.9972 C -64.63496 -3658.9972 -64.78915 -3659.1514 -64.78915 -3659.3477 L -64.78915 -3659.74 L -65.13959 -3659.74 C -65.33583 -3659.74 -65.49003 -3659.8944 -65.49003 -3660.0906 C -65.49003 -3660.287 -65.33583 -3660.441 -65.13959 -3660.441 L -64.78915 -3660.441 L -64.78915 -3660.7915 C -64.78915 -3660.9877 -64.63496 -3661.142 -64.43871 -3661.142 C -64.24247 -3661.142 -64.088274 -3660.9877 -64.088274 -3660.7915 Z M -68.99441 -3668.8516 L -68.99441 -3669.202 C -68.99441 -3669.3982 -68.840214 -3669.5524 -68.64397 -3669.5524 C -68.44772 -3669.5524 -68.29353 -3669.3982 -68.29353 -3669.202 L -68.29353 -3668.8516 L -67.94309 -3668.8516 C -67.74685 -3668.8516 -67.592655 -3668.6974 -67.592655 -3668.501 C -67.592655 -3668.305 -67.74685 -3668.1507 -67.94309 -3668.1507 L -68.29353 -3668.1507 L -68.29353 -3667.8002 C -68.29353 -3667.604 -68.44772 -3667.45 -68.64397 -3667.45 C -68.840214 -3667.45 -68.99441 -3667.604 -68.99441 -3667.8002 L -68.99441 -3668.1507 L -69.344845 -3668.1507 C -69.54109 -3668.1507 -69.69528 -3668.305 -69.69528 -3668.501 C -69.69528 -3668.6974 -69.54109 -3668.8516 -69.344845 -3668.8516 Z M -60.583894 -3663.2445 L -60.233456 -3663.2445 C -60.03721 -3663.2445 -59.88302 -3663.0904 -59.88302 -3662.894 C -59.88302 -3662.698 -60.03721 -3662.5437 -60.233456 -3662.5437 L -60.583894 -3662.5437 L -60.583894 -3662.1932 C -60.583894 -3661.997 -60.73809 -3661.843 -60.93433 -3661.843 C -61.13058 -3661.843 -61.28477 -3661.997 -61.28477 -3662.1932 L -61.28477 -3662.5437 L -61.63521 -3662.5437 C -61.83145 -3662.5437 -61.985646 -3662.698 -61.985646 -3662.894 C -61.985646 -3663.0904 -61.83145 -3663.2445 -61.63521 -3663.2445 L -61.28477 -3663.2445 L -61.28477 -3663.595 C -61.28477 -3663.7912 -61.13058 -3663.9454 -60.93433 -3663.9454 C -60.73809 -3663.9454 -60.583894 -3663.7912 -60.583894 -3663.595 Z M -63.03696 -3666.749 C -62.45523 -3666.749 -61.985646 -3667.2185 -61.985646 -3667.8002 C -61.985646 -3668.382 -62.45523 -3668.8516 -63.03696 -3668.8516 C -63.61869 -3668.8516 -64.088274 -3668.382 -64.088274 -3667.8002 C -64.088274 -3667.2185 -63.61869 -3666.749 -63.03696 -3666.749 Z" fill="#5c75a0"/>
        </g>
      </g>
    </g>
  </g>
</svg>
